Papirus/22x22/panel/clementine-panel.svg

<?xml version="1.0" encoding="UTF-8" standalone="no"?>
<svg xmlns:osb="http://www.openswatchbook.org/uri/2009/osb" xmlns:dc="http://purl.org/dc/elements/1.1/" xmlns:cc="http://creativecommons.org/ns#" xmlns:rdf="http://www.w3.org/1999/02/22-rdf-syntax-ns#" xmlns:svg="http://www.w3.org/2000/svg" xmlns="http://www.w3.org/2000/svg" width="22" version="1.1" style="enable-background:new" id="svg7384" height="22">
    <metadata id="metadata90">
        <rdf:RDF>
            <cc:Work rdf:about="">
                <dc:format>
                    image/svg+xml
                </dc:format>
                <dc:type rdf:resource="http://purl.org/dc/dcmitype/StillImage"/>
                <dc:title>
                    Paper Symbolic Icon Theme
                </dc:title>
            </cc:Work>
        </rdf:RDF>
    </metadata>
    <title id="title8473">
        Paper Symbolic Icon Theme
    </title>
    <defs id="defs7386">
        <linearGradient osb:paint="solid" id="linearGradient5606">
            <stop style="stop-color:#ffffff;stop-opacity:1;" offset="0" id="stop5608"/>
        </linearGradient>
        <filter style="color-interpolation-filters:sRGB" id="filter7554">
            <feBlend mode="darken" in2="BackgroundImage" id="feBlend7556"/>
        </filter>
    </defs>
    <g transform="translate(-265.0002,419)" style="display:inline" id="layer9">
        <path id="path4198" transform="translate(265.0002,-419)" d="M 5.6367188 3.6367188 A 9 9 0 0 0 5.6367188 16.363281 A 9 9 0 0 0 18.363281 16.363281 L 16.949219 14.949219 A 7 7 0 0 1 7.0507812 14.949219 A 7 7 0 0 1 7.0507812 5.0507812 L 5.6367188 3.6367188 z M 7.7402344 5.8105469 A 6 6 0 0 0 6.3457031 9.1816406 L 11.111328 9.1816406 L 7.7402344 5.8105469 z M 6.3378906 10.181641 A 6 6 0 0 0 7.7402344 13.552734 L 11.111328 10.181641 L 6.3378906 10.181641 z M 11.818359 10.888672 L 8.4472656 14.259766 A 6 6 0 0 0 11.818359 15.654297 L 11.818359 10.888672 z M 12.818359 10.888672 L 12.818359 15.662109 A 6 6 0 0 0 16.189453 14.259766 L 12.818359 10.888672 z " style="opacity:1;fill:#ffffff;fill-opacity:1;stroke:none;stroke-width:10;stroke-linecap:round;stroke-linejoin:round;stroke-miterlimit:4;stroke-dasharray:none;stroke-opacity:1"/>
    </g>
</svg>

<?xml version="1.0" encoding="UTF-8" standalone="no"?>
<svg id="svg7384" xmlns:rdf="http://www.w3.org/1999/02/22-rdf-syntax-ns#" style="enable-background:new" xmlns="http://www.w3.org/2000/svg" xmlns:osb="http://www.openswatchbook.org/uri/2009/osb" height="22" width="22" version="1.1" xmlns:cc="http://creativecommons.org/ns#" xmlns:dc="http://purl.org/dc/elements/1.1/">
 <metadata id="metadata90">
  <rdf:RDF>
   <cc:Work rdf:about="">
    <dc:format>image/svg+xml</dc:format>
    <dc:type rdf:resource="http://purl.org/dc/dcmitype/StillImage"/>
   </cc:Work>
  </rdf:RDF>
 </metadata>
 <g id="layer9" transform="translate(-265 419)">
  <path id="path4198" d="m5.6367 3.6367a9 9 0 0 0 0 12.726 9 9 0 0 0 12.726 0l-1.414-1.414a7 7 0 0 1 -9.8982 0 7 7 0 0 1 0 -9.8982l-1.4141-1.4141zm2.1035 2.1738a6 6 0 0 0 -1.3945 3.3711h4.7653l-3.3708-3.3711zm-1.4023 4.3715a6 6 0 0 0 1.4023 3.371l3.3708-3.371h-4.7731zm5.4801 0.707l-3.3707 3.371a6 6 0 0 0 3.3707 1.394v-4.765zm1 0v4.773a6 6 0 0 0 3.371 -1.402l-3.371-3.371z" transform="translate(265 -419)" fill="#fff"/>
 </g>
</svg>
